icons/white/busybox.svg

<?xml version="1.0" encoding="UTF-8" standalone="no"?>
<svg
   width="48"
   height="48"
   version="1.1"
   viewBox="0 0 12.7 12.7"
   id="svg1"
   xmlns="http://www.w3.org/2000/svg"
   xmlns:svg="http://www.w3.org/2000/svg">
  <defs
     id="defs1" />
  <path
     d="M 3.843812,10.909812 C 2.921147,10.661034 2.1327599,10.444431 2.0918743,10.42848 2.0226903,10.40149 2.0175513,10.273094 2.0175513,8.5716089 c 0,-1.424148 -0.011725,-1.8318962 -0.053088,-1.8462968 C 1.4873304,6.5596549 1.4229709,6.525013 1.4229709,6.4338663 c 0,-0.090633 0.1159902,-0.5175251 0.4426923,-1.6293816 L 2.0184605,4.2844723 1.4172006,3.3846065 C 1.0865106,2.8896793 0.80752177,2.4525559 0.79722988,2.4132111 0.78693597,2.373836 0.80025803,2.3282174 0.82683467,2.3118329 0.85341132,2.2954182 1.9110079,2.0736391 3.1770515,1.8189903 4.4430951,1.5643415 5.5009848,1.3477183 5.5278726,1.3376178 5.6105451,1.3066011 5.676098,1.3906885 6.2638334,2.2813399 L 6.8325057,3.1431498 8.3292609,1.6489122 9.1762272,1.8824838 c 1.7060178,0.4704764 2.3780118,0.661541 2.4714638,0.7027388 0.05256,0.023162 0.09556,0.076736 0.09556,0.119112 0,0.04582 -0.318233,0.3661779 -0.786796,0.7919721 -0.432733,0.3932369 -0.79601,0.7298885 -0.807279,0.7481158 -0.01127,0.018227 0.382612,0.4347871 0.875284,0.9257063 0.61699,0.6147945 0.891346,0.9164113 0.881538,0.9691396 -0.01152,0.061933 -0.190219,0.1209549 -0.937902,0.3095725 l -0.923672,0.2330177 v 3.7169644 l -0.095557,0.03575 C 9.89631,10.454213 9.5570803,10.531753 9.1950213,10.606756 8.8329622,10.681776 7.8626141,10.884879 7.0386586,11.058069 6.214703,11.231258 5.536264,11.370501 5.5309267,11.3675 5.5256067,11.3645 4.7663459,11.15849 3.8436406,10.909712 Z M 5.4576853,8.6905095 c 0,-1.3119644 -0.015297,-2.3673364 -0.033991,-2.345081 C 5.4049983,6.3675833 5.3171899,6.6857457 5.2285608,7.0524069 5.1399317,7.4190682 5.0436592,7.7387714 5.0146164,7.7628596 4.9767227,7.7942791 4.5850961,7.6702125 3.6277286,7.3235711 L 2.2936095,6.8404866 2.2824989,8.5191122 c -0.00611,0.9232491 -0.00249,1.6872868 0.00805,1.6977598 0.017585,0.01752 3.0626936,0.84893 3.1353008,0.855959 0.017519,0.002 0.031853,-1.070377 0.031852,-2.3823417 z m 0.4801842,2.3438725 c 0.097939,-0.02286 0.9616473,-0.204639 1.9193068,-0.403871 0.9577098,-0.199221 1.7842635,-0.371857 1.8368307,-0.38363 l 0.095558,-0.02145 V 8.4859808 c 0,-0.9567028 -0.010101,-1.7394505 -0.022446,-1.7394505 -0.023557,0 -2.2005715,0.5406264 -2.316884,0.5753691 C 7.4044439,7.3355951 7.1216102,7.0578248 6.562404,6.450009 6.1110613,5.9594423 5.7256189,5.5580586 5.7058709,5.5580586 c -0.042004,0 -0.049532,5.4476534 -0.00758,5.4896464 0.035718,0.03575 0.027992,0.03615 0.2395533,-0.01329 z M 5.1411643,6.3992042 C 5.2893998,5.8082059 5.3973539,5.3125134 5.3810802,5.29771 5.347125,5.266794 2.2569575,4.413282 2.24014,4.4301297 2.2200154,4.4502704 1.6877011,6.3430922 1.6986475,6.3555794 c 0.02333,0.026586 3.1441628,1.1456023 3.1580598,1.1323095 0.0082,-0.00806 0.1361914,-0.497757 0.2844167,-1.0887049 z M 9.5259934,6.5484366 11.534524,6.050156 10.707356,5.2234815 9.8801875,4.3967969 9.4632753,4.488437 C 9.2339736,4.5388894 8.5590088,4.685574 7.9633983,4.8144845 6.2548638,5.1842373 5.8622211,5.2715573 5.8460078,5.2853738 c -0.00832,0.00705 0.3070247,0.3589876 0.700765,0.7819823 0.3937404,0.4230048 0.7530603,0.815718 0.7984977,0.8727061 0.045438,0.056998 0.102778,0.1042985 0.12741,0.1051243 0.024637,8.258e-4 0.9486465,-0.2227258 2.0533431,-0.4967801 z M 3.0947698,3.9461591 C 3.565085,3.8533105 4.5310022,3.6624775 5.2412635,3.5221472 5.9515148,3.381817 6.5415463,3.2580726 6.552523,3.2471463 6.5731541,3.2265021 6.334057,2.8414021 5.8264512,2.0775766 5.6635433,1.8324543 5.5247538,1.6252268 5.5180369,1.6170698 5.5065637,1.6031727 1.2939305,2.4423748 1.1779201,2.4817095 c -0.034392,0.011682 0.1409345,0.3104587 0.4845447,0.8257682 0.2961386,0.4441122 0.547162,0.8074805 0.5578265,0.8074805 0.010661,0 0.4041834,-0.07593 0.8744986,-0.1688495 z M 10.263445,3.7860607 C 10.459535,3.6051369 10.787828,3.3056953 10.992981,3.1206426 11.249926,2.8888737 11.348686,2.7747163 11.310368,2.75378 11.230853,2.7102761 8.5055755,1.9502874 8.4292423,1.9502874 c -0.065713,0 -1.3899088,1.2992758 -1.3557703,1.3302924 0.018571,0.016918 2.7523256,0.8274198 2.8066048,0.8321427 0.014762,0.00101 0.1872782,-0.1456876 0.3833682,-0.3266114 z"
     id="path3"
     style="fill:#fff;fill-opacity:1;stroke:none;stroke-width:0;stroke-dasharray:none;stroke-opacity:1" />
  <path
     d="m 6.222115,9.8488004 c 0,-0.2756354 0.00751,-0.3008414 0.095559,-0.3204786 0.1189605,-0.026485 1.8377365,-0.3521901 2.1553552,-0.4083726 0.2585661,-0.045719 0.6178055,-0.1200385 0.7326175,-0.1515184 0.065683,-0.018026 0.074323,0.014401 0.074323,0.2787975 0,0.275726 -0.00749,0.3008112 -0.095559,0.3201866 C 9.0183306,9.6039699 8.4843103,9.7067079 7.4112245,9.9086283 6.838937,10.016321 6.3372224,10.114225 6.2963368,10.126198 c -0.065815,0.01933 -0.074323,-0.01249 -0.074323,-0.2773976 z"
     id="path2"
     style="fill:#fff;fill-opacity:1;stroke:none;stroke-width:0;stroke-dasharray:none;stroke-opacity:1" />
  <path
     d="M 3.772514,10.115866 C 3.734567,10.099756 3.736124,10.046586 3.778944,9.8955973 3.810012,9.7860924 3.847149,9.627998 3.86147,9.5442631 L 3.8875113,9.3920197 3.6530636,9.3358272 C 3.5241128,9.3049112 3.4110632,9.2874895 3.4018387,9.2970563 c -0.00922,0.01007 -0.052118,0.1607026 -0.09532,0.3357856 -0.073675,0.2985857 -0.085138,0.3174273 -0.1847203,0.3035806 -0.058397,-0.00806 -0.1140467,-0.022356 -0.1236638,-0.031621 -0.00962,-0.00906 0.021303,-0.1701888 0.06872,-0.3575878 0.047416,-0.187399 0.074255,-0.3481116 0.05964,-0.3571447 C 3.1118796,9.181009 3.0236159,9.159858 2.9303646,9.143041 2.6862091,9.098832 2.6121618,9.049588 2.6121618,8.9310502 c 0,-0.1242983 -0.019271,-0.1221331 0.2991295,-0.033635 0.2800664,0.077844 0.3190386,0.06294 0.3524117,-0.1346305 C 3.275534,8.6927957 3.298111,8.5758892 3.313874,8.5030907 3.3424197,8.3712695 3.3415375,8.3705042 3.0941394,8.3104043 2.8625617,8.2541111 2.8448682,8.2411204 2.8327435,8.1179399 l -0.012999,-0.1321128 0.1616491,0.054682 c 0.2466832,0.083483 0.4374457,0.1174504 0.4400136,0.078347 0.00127,-0.019335 0.036215,-0.1689098 0.077649,-0.3323213 0.069437,-0.2738529 0.08339,-0.2959573 0.1781847,-0.2823523 0.056567,0.00806 0.1110658,0.022658 0.1211059,0.032426 0.01004,0.01007 -0.014095,0.1558587 -0.053633,0.3247988 -0.039536,0.1689502 -0.071639,0.3207606 -0.07134,0.3373666 4.621e-4,0.025679 0.3917464,0.1608133 0.4654915,0.1608133 0.013654,0 0.061149,-0.1523643 0.1055473,-0.3385952 0.078366,-0.3287363 0.083915,-0.3378298 0.1904403,-0.312372 0.060345,0.014401 0.1148724,0.030312 0.1211664,0.035246 0.013029,0.010272 -0.1054365,0.5345842 -0.142727,0.6316825 -0.018083,0.047129 0.023593,0.076132 0.1595746,0.1113176 0.1012271,0.026183 0.2174893,0.0573 0.2583748,0.069083 0.048177,0.013998 0.074323,0.063745 0.074323,0.141579 V 8.8175569 L 4.6444517,8.73639 C 4.5008385,8.6916776 4.3758756,8.6625743 4.366772,8.6717383 4.324937,8.7135303 4.2178216,9.1683573 4.2376501,9.219988 4.2499001,9.251911 4.3669734,9.301961 4.4978073,9.3312049 4.7189319,9.3806499 4.735689,9.3929359 4.735689,9.506016 V 9.6276154 L 4.4587646,9.5508794 C 4.2793312,9.5011319 4.1724949,9.4892489 4.1552948,9.517043 4.1406928,9.5406076 4.0969502,9.6862248 4.0580888,9.8405327 3.9875611,10.120579 3.9252912,10.180659 3.7725341,10.116007 Z M 4.029338,8.880839 C 4.0651229,8.7240437 4.0905727,8.5927365 4.085893,8.5890508 4.0435563,8.5556172 3.6271385,8.4598482 3.6150944,8.4807341 c -0.056217,0.097582 -0.1529585,0.5327414 -0.1245198,0.560183 0.039502,0.038066 0.2965414,0.1154263 0.4028339,0.1211664 0.053555,0.00302 0.086744,-0.065759 0.1359194,-0.2812445 z"
     id="path1"
     style="fill:#fff;fill-opacity:1;stroke:none;stroke-width:0;stroke-dasharray:none;stroke-opacity:1" />
</svg>

<?xml version="1.0" encoding="UTF-8"?>
<svg width="48" height="48" version="1.1" viewBox="0 0 12.7 12.7" xmlns="http://www.w3.org/2000/svg">
    <path d="m3.8613 10.878c-0.91622-0.24704-1.6991-0.46213-1.7397-0.47797-0.068701-0.0268-0.073804-0.1543-0.073804-1.8439 0-1.4142-0.011643-1.8191-0.052717-1.8334-0.4738-0.1645-0.53771-0.1989-0.53771-0.28941 0-0.09 0.11518-0.51391 0.4396-1.618l0.15173-0.51638-0.59706-0.89358c-0.32838-0.49147-0.60542-0.92554-0.61564-0.96461-0.010222-0.0391 0.003007-0.0844 0.029398-0.10067 0.026391-0.0163 1.0766-0.23653 2.3338-0.4894s2.3077-0.46798 2.3344-0.47801c0.082095-0.0308 0.14719 0.0527 0.73082 0.93713l0.5647 0.85579 1.4863-1.4838 0.84105 0.23194c1.6941 0.46719 2.3614 0.65692 2.4542 0.69783 0.05219 0.023 0.09489 0.0762 0.09489 0.11828 0 0.0455-0.31601 0.36362-0.7813 0.78644-0.42971 0.39049-0.79045 0.72479-0.80164 0.74289-0.01119 0.0181 0.37994 0.43175 0.86917 0.91924 0.61268 0.6105 0.88512 0.91001 0.87538 0.96237-0.01144 0.0615-0.18889 0.12011-0.93135 0.30741l-0.91722 0.23139v3.691l-0.09489 0.0355c-0.05219 0.0195-0.38905 0.0965-0.74858 0.17098-0.35953 0.0745-1.3231 0.27618-2.1413 0.44816s-1.4919 0.31025-1.4972 0.30727c-0.00528-3e-3 -0.75924-0.20755-1.6755-0.45459zm1.6026-2.2038c0-1.3028-0.01519-2.3508-0.033754-2.3287-0.018565 0.022-0.10576 0.33794-0.19377 0.70204-0.08801 0.3641-0.18361 0.68157-0.21245 0.70549-0.037629 0.0312-0.42652-0.092-1.3772-0.43622l-1.3248-0.47971-0.011033 1.6669c-0.00607 0.9168-0.00247 1.6755 0.00799 1.6859 0.017462 0.0174 3.0413 0.843 3.1134 0.84998 0.017397 2e-3 0.03163-1.0629 0.031629-2.3657zm-1.6734 1.4154c-0.037682-0.016-0.036136-0.0688 0.00639-0.21873 0.030851-0.10874 0.067728-0.26573 0.081949-0.34888l0.025855-0.15118-0.23281-0.0558c-0.12805-0.0307-0.24031-0.048-0.24947-0.0385-0.00916 0.01-0.051754 0.15958-0.094654 0.33344-0.07316 0.2965-0.084543 0.31521-0.18343 0.30146-0.057989-8e-3 -0.11325-0.0222-0.1228-0.0314-0.00955-9e-3 0.021154-0.169 0.06824-0.35509 0.047085-0.18609 0.073736-0.34568 0.059223-0.35465-0.014513-9e-3 -0.10216-0.03-0.19476-0.0467-0.24245-0.0439-0.31598-0.0928-0.31598-0.21051 0-0.12343-0.019136-0.12128 0.29704-0.0334 0.27811 0.0773 0.31681 0.0625 0.34995-0.13369 0.011748-0.0695 0.034168-0.18559 0.049821-0.25788 0.028346-0.1309 0.02747-0.13166-0.2182-0.19134-0.22996-0.0559-0.24753-0.0688-0.25957-0.19112l-0.012908-0.13119 0.16052 0.0543c0.24496 0.0829 0.43439 0.11663 0.43694 0.0778 0.00126-0.0192 0.035962-0.16773 0.077107-0.33 0.068952-0.27194 0.082807-0.29389 0.17694-0.28038 0.056172 8e-3 0.11029 0.0225 0.12026 0.0322 0.00997 0.01-0.013997 0.15477-0.053258 0.32253-0.03926 0.16777-0.071139 0.31852-0.070842 0.33501 4.589e-4 0.0255 0.38901 0.15969 0.46224 0.15969 0.013559 0 0.060722-0.1513 0.10481-0.33623 0.077819-0.32644 0.083329-0.33547 0.18911-0.31019 0.059923 0.0143 0.11407 0.0301 0.12032 0.035 0.012938 0.0102-0.1047 0.53085-0.14173 0.62727-0.017957 0.0468 0.023428 0.0756 0.15846 0.11054 0.10052 0.026 0.21597 0.0569 0.25657 0.0686 0.04784 0.0139 0.073804 0.0633 0.073804 0.14059v0.11919l-0.25929-0.0806c-0.14261-0.0444-0.2667-0.0733-0.27574-0.0642-0.041543 0.0415-0.14791 0.49315-0.12822 0.54442 0.012165 0.0317 0.12842 0.0814 0.25834 0.11044 0.21958 0.0491 0.23622 0.0613 0.23622 0.17359v0.12075l-0.27499-0.0762c-0.17818-0.0494-0.28427-0.0612-0.30135-0.0336-0.0145 0.0234-0.057937 0.168-0.096527 0.32123-0.070035 0.27809-0.13187 0.33775-0.28356 0.27355zm0.25503-1.2264c0.035535-0.1557 0.060807-0.28609 0.05616-0.28975-0.042041-0.0332-0.45555-0.1283-0.46751-0.10756-0.055824 0.0969-0.15189 0.52902-0.12365 0.55627 0.039226 0.0378 0.29447 0.11462 0.40002 0.12032 0.053181 3e-3 0.086138-0.0653 0.13497-0.27928zm1.8952 2.1385c0.097255-0.0227 0.95493-0.20321 1.9059-0.40105 0.95102-0.19783 1.7718-0.36926 1.824-0.38095l0.094891-0.0213v-1.7273c0-0.95002-0.01003-1.7273-0.022289-1.7273-0.023393 0-2.1852 0.53685-2.3007 0.57135-0.045472 0.0136-0.32633-0.26223-0.88163-0.8658-0.44819-0.48714-0.83094-0.88572-0.85055-0.88572-0.041711 0-0.049186 5.4096-0.00753 5.4513 0.035469 0.0355 0.027797 0.0359 0.23788-0.0132zm0.28226-1.1773c0-0.27371 0.00746-0.29874 0.094891-0.31824 0.11813-0.0263 1.8249-0.34973 2.1403-0.40552 0.25676-0.0454 0.61349-0.1192 0.7275-0.15046 0.065224-0.0179 0.073804 0.0143 0.073804 0.27685 0 0.2738-0.00744 0.29871-0.094891 0.31795-0.16492 0.0363-0.69521 0.13832-1.7608 0.33883-0.56829 0.10694-1.0665 0.20416-1.1071 0.21605-0.065355 0.0192-0.073804-0.0124-0.073804-0.27546zm-1.0734-3.4255c0.1472-0.58687 0.2544-1.0791 0.23824-1.0938-0.033718-0.0307-3.1023-0.87825-3.119-0.86152-0.019984 0.02-0.54858 1.8996-0.53771 1.912 0.023167 0.0264 3.1222 1.1376 3.136 1.1244 0.00814-8e-3 0.13524-0.49428 0.28243-1.0811zm4.3542 0.14819 1.9945-0.4948-0.82139-0.8209-0.82139-0.82091-0.414 0.091c-0.2277 0.0501-0.89795 0.19576-1.4894 0.32377-1.6966 0.36717-2.0865 0.45388-2.1026 0.4676-0.00826 7e-3 0.30488 0.35648 0.69587 0.77652 0.39099 0.42005 0.7478 0.81002 0.79292 0.86661 0.045121 0.0566 0.10206 0.10357 0.12652 0.10439 0.024465 8.2e-4 0.94202-0.22117 2.039-0.49331zm-6.3863-2.5841c0.46703-0.0922 1.4262-0.2817 2.1315-0.42105 0.70529-0.13935 1.2912-0.26223 1.3021-0.27308 0.020487-0.0205-0.21694-0.40291-0.721-1.1614-0.16177-0.24341-0.29959-0.44919-0.30626-0.45729-0.011393-0.0138-4.1946 0.81954-4.3098 0.8586-0.034152 0.0116 0.13995 0.30829 0.48116 0.82 0.29407 0.44101 0.54334 0.80184 0.55393 0.80184 0.010586 0 0.40136-0.0754 0.86839-0.16767zm7.1186-0.15898c0.19472-0.17966 0.52072-0.47701 0.72444-0.66077 0.25515-0.23015 0.35322-0.34351 0.31517-0.3643-0.07896-0.0432-2.7852-0.79788-2.861-0.79788-0.065254 0-1.3802 1.2902-1.3463 1.321 0.018441 0.0168 2.7331 0.82164 2.787 0.82633 0.014659 1e-3 0.18597-0.14467 0.38069-0.32433z" fill="#fff" stroke-width=".042161"/>
</svg>
